public/svgs/insight/science.svg

<svg width="400" height="160" viewBox="0 0 400 160" fill="none" xmlns="http://www.w3.org/2000/svg">
    <mask id="path-1-inside-1_910_2310" fill="white">
        <path fill-rule="evenodd" clip-rule="evenodd" d="M400 0H34L0 34V160H400V0Z"/>
    </mask>
    <path d="M34 0V-1H33.5858L33.2929 -0.707107L34 0ZM400 0H401V-1H400V0ZM0 34L-0.707107 33.2929L-1 33.5858V34H0ZM0 160H-1V161H0V160ZM400 160V161H401V160H400ZM34 1H400V-1H34V1ZM0.707107 34.7071L34.7071 0.707107L33.2929 -0.707107L-0.707107 33.2929L0.707107 34.7071ZM1 160V34H-1V160H1ZM400 159H0V161H400V159ZM399 0V160H401V0H399Z"
          fill="#222222" mask="url(#path-1-inside-1_910_2310)"/>
    <path d="M26.2 137.14C25.2267 137.14 24.3467 136.973 23.56 136.64C22.7867 136.307 22.1733 135.827 21.72 135.2C21.2667 134.573 21.0333 133.833 21.02 132.98H24.02C24.06 133.553 24.26 134.007 24.62 134.34C24.9933 134.673 25.5 134.84 26.14 134.84C26.7933 134.84 27.3067 134.687 27.68 134.38C28.0533 134.06 28.24 133.647 28.24 133.14C28.24 132.727 28.1133 132.387 27.86 132.12C27.6067 131.853 27.2867 131.647 26.9 131.5C26.5267 131.34 26.0067 131.167 25.34 130.98C24.4333 130.713 23.6933 130.453 23.12 130.2C22.56 129.933 22.0733 129.54 21.66 129.02C21.26 128.487 21.06 127.78 21.06 126.9C21.06 126.073 21.2667 125.353 21.68 124.74C22.0933 124.127 22.6733 123.66 23.42 123.34C24.1667 123.007 25.02 122.84 25.98 122.84C27.42 122.84 28.5867 123.193 29.48 123.9C30.3867 124.593 30.8867 125.567 30.98 126.82H27.9C27.8733 126.34 27.6667 125.947 27.28 125.64C26.9067 125.32 26.4067 125.16 25.78 125.16C25.2333 125.16 24.7933 125.3 24.46 125.58C24.14 125.86 23.98 126.267 23.98 126.8C23.98 127.173 24.1 127.487 24.34 127.74C24.5933 127.98 24.9 128.18 25.26 128.34C25.6333 128.487 26.1533 128.66 26.82 128.86C27.7267 129.127 28.4667 129.393 29.04 129.66C29.6133 129.927 30.1067 130.327 30.52 130.86C30.9333 131.393 31.14 132.093 31.14 132.96C31.14 133.707 30.9467 134.4 30.56 135.04C30.1733 135.68 29.6067 136.193 28.86 136.58C28.1133 136.953 27.2267 137.14 26.2 137.14ZM32.8475 131.46C32.8475 130.313 33.0808 129.313 33.5475 128.46C34.0142 127.593 34.6608 126.927 35.4875 126.46C36.3142 125.98 37.2608 125.74 38.3275 125.74C39.7008 125.74 40.8342 126.087 41.7275 126.78C42.6342 127.46 43.2408 128.42 43.5475 129.66H40.5275C40.3675 129.18 40.0942 128.807 39.7075 128.54C39.3342 128.26 38.8675 128.12 38.3075 128.12C37.5075 128.12 36.8742 128.413 36.4075 129C35.9408 129.573 35.7075 130.393 35.7075 131.46C35.7075 132.513 35.9408 133.333 36.4075 133.92C36.8742 134.493 37.5075 134.78 38.3075 134.78C39.4408 134.78 40.1808 134.273 40.5275 133.26H43.5475C43.2408 134.46 42.6342 135.413 41.7275 136.12C40.8208 136.827 39.6875 137.18 38.3275 137.18C37.2608 137.18 36.3142 136.947 35.4875 136.48C34.6608 136 34.0142 135.333 33.5475 134.48C33.0808 133.613 32.8475 132.607 32.8475 131.46ZM47.0188 124.6C46.5254 124.6 46.1121 124.447 45.7788 124.14C45.4588 123.82 45.2988 123.427 45.2988 122.96C45.2988 122.493 45.4588 122.107 45.7788 121.8C46.1121 121.48 46.5254 121.32 47.0188 121.32C47.5121 121.32 47.9188 121.48 48.2388 121.8C48.5721 122.107 48.7388 122.493 48.7388 122.96C48.7388 123.427 48.5721 123.82 48.2388 124.14C47.9188 124.447 47.5121 124.6 47.0188 124.6ZM48.3988 125.92V137H45.5988V125.92H48.3988ZM61.4652 131.22C61.4652 131.62 61.4385 131.98 61.3852 132.3H53.2852C53.3518 133.1 53.6318 133.727 54.1252 134.18C54.6185 134.633 55.2252 134.86 55.9452 134.86C56.9852 134.86 57.7252 134.413 58.1652 133.52H61.1852C60.8652 134.587 60.2518 135.467 59.3452 136.16C58.4385 136.84 57.3252 137.18 56.0052 137.18C54.9385 137.18 53.9785 136.947 53.1252 136.48C52.2852 136 51.6252 135.327 51.1452 134.46C50.6785 133.593 50.4452 132.593 50.4452 131.46C50.4452 130.313 50.6785 129.307 51.1452 128.44C51.6118 127.573 52.2652 126.907 53.1052 126.44C53.9452 125.973 54.9118 125.74 56.0052 125.74C57.0585 125.74 57.9985 125.967 58.8252 126.42C59.6652 126.873 60.3118 127.52 60.7652 128.36C61.2318 129.187 61.4652 130.14 61.4652 131.22ZM58.5652 130.42C58.5518 129.7 58.2918 129.127 57.7852 128.7C57.2785 128.26 56.6585 128.04 55.9252 128.04C55.2318 128.04 54.6452 128.253 54.1652 128.68C53.6985 129.093 53.4118 129.673 53.3052 130.42H58.5652ZM69.6489 125.76C70.9689 125.76 72.0356 126.18 72.8489 127.02C73.6622 127.847 74.0689 129.007 74.0689 130.5V137H71.2689V130.88C71.2689 130 71.0489 129.327 70.6089 128.86C70.1689 128.38 69.5689 128.14 68.8089 128.14C68.0356 128.14 67.4222 128.38 66.9689 128.86C66.5289 129.327 66.3089 130 66.3089 130.88V137H63.5089V125.92H66.3089V127.3C66.6822 126.82 67.1556 126.447 67.7289 126.18C68.3156 125.9 68.9556 125.76 69.6489 125.76ZM76.0116 131.46C76.0116 130.313 76.2449 129.313 76.7116 128.46C77.1782 127.593 77.8249 126.927 78.6516 126.46C79.4782 125.98 80.4249 125.74 81.4916 125.74C82.8649 125.74 83.9982 126.087 84.8916 126.78C85.7982 127.46 86.4049 128.42 86.7116 129.66H83.6916C83.5316 129.18 83.2582 128.807 82.8716 128.54C82.4982 128.26 82.0316 128.12 81.4716 128.12C80.6716 128.12 80.0382 128.413 79.5716 129C79.1049 129.573 78.8716 130.393 78.8716 131.46C78.8716 132.513 79.1049 133.333 79.5716 133.92C80.0382 134.493 80.6716 134.78 81.4716 134.78C82.6049 134.78 83.3449 134.273 83.6916 133.26H86.7116C86.4049 134.46 85.7982 135.413 84.8916 136.12C83.9849 136.827 82.8516 137.18 81.4916 137.18C80.4249 137.18 79.4782 136.947 78.6516 136.48C77.8249 136 77.1782 135.333 76.7116 134.48C76.2449 133.613 76.0116 132.607 76.0116 131.46ZM99.0628 131.22C99.0628 131.62 99.0361 131.98 98.9828 132.3H90.8828C90.9495 133.1 91.2295 133.727 91.7228 134.18C92.2161 134.633 92.8228 134.86 93.5428 134.86C94.5828 134.86 95.3228 134.413 95.7628 133.52H98.7828C98.4628 134.587 97.8495 135.467 96.9428 136.16C96.0361 136.84 94.9228 137.18 93.6028 137.18C92.5361 137.18 91.5761 136.947 90.7228 136.48C89.8828 136 89.2228 135.327 88.7428 134.46C88.2761 133.593 88.0428 132.593 88.0428 131.46C88.0428 130.313 88.2761 129.307 88.7428 128.44C89.2095 127.573 89.8628 126.907 90.7028 126.44C91.5428 125.973 92.5095 125.74 93.6028 125.74C94.6561 125.74 95.5961 125.967 96.4228 126.42C97.2628 126.873 97.9095 127.52 98.3628 128.36C98.8295 129.187 99.0628 130.14 99.0628 131.22ZM96.1628 130.42C96.1495 129.7 95.8895 129.127 95.3828 128.7C94.8761 128.26 94.2561 128.04 93.5228 128.04C92.8295 128.04 92.2428 128.253 91.7628 128.68C91.2961 129.093 91.0095 129.673 90.9028 130.42H96.1628ZM105.192 130C105.192 128.627 105.499 127.4 106.112 126.32C106.739 125.227 107.586 124.38 108.652 123.78C109.732 123.167 110.939 122.86 112.272 122.86C113.832 122.86 115.199 123.26 116.372 124.06C117.546 124.86 118.366 125.967 118.832 127.38H115.612C115.292 126.713 114.839 126.213 114.252 125.88C113.679 125.547 113.012 125.38 112.252 125.38C111.439 125.38 110.712 125.573 110.072 125.96C109.446 126.333 108.952 126.867 108.592 127.56C108.246 128.253 108.072 129.067 108.072 130C108.072 130.92 108.246 131.733 108.592 132.44C108.952 133.133 109.446 133.673 110.072 134.06C110.712 134.433 111.439 134.62 112.252 134.62C113.012 134.62 113.679 134.453 114.252 134.12C114.839 133.773 115.292 133.267 115.612 132.6H118.832C118.366 134.027 117.546 135.14 116.372 135.94C115.212 136.727 113.846 137.12 112.272 137.12C110.939 137.12 109.732 136.82 108.652 136.22C107.586 135.607 106.739 134.76 106.112 133.68C105.499 132.6 105.192 131.373 105.192 130ZM126.144 137.18C125.077 137.18 124.117 136.947 123.264 136.48C122.41 136 121.737 135.327 121.244 134.46C120.764 133.593 120.524 132.593 120.524 131.46C120.524 130.327 120.77 129.327 121.264 128.46C121.77 127.593 122.457 126.927 123.324 126.46C124.19 125.98 125.157 125.74 126.224 125.74C127.29 125.74 128.257 125.98 129.124 126.46C129.99 126.927 130.67 127.593 131.164 128.46C131.67 129.327 131.924 130.327 131.924 131.46C131.924 132.593 131.664 133.593 131.144 134.46C130.637 135.327 129.944 136 129.064 136.48C128.197 136.947 127.224 137.18 126.144 137.18ZM126.144 134.74C126.65 134.74 127.124 134.62 127.564 134.38C128.017 134.127 128.377 133.753 128.644 133.26C128.91 132.767 129.044 132.167 129.044 131.46C129.044 130.407 128.764 129.6 128.204 129.04C127.657 128.467 126.984 128.18 126.184 128.18C125.384 128.18 124.71 128.467 124.164 129.04C123.63 129.6 123.364 130.407 123.364 131.46C123.364 132.513 123.624 133.327 124.144 133.9C124.677 134.46 125.344 134.74 126.144 134.74ZM147.738 125.76C149.098 125.76 150.191 126.18 151.018 127.02C151.858 127.847 152.278 129.007 152.278 130.5V137H149.478V130.88C149.478 130.013 149.258 129.353 148.818 128.9C148.378 128.433 147.778 128.2 147.018 128.2C146.258 128.2 145.651 128.433 145.198 128.9C144.758 129.353 144.538 130.013 144.538 130.88V137H141.738V130.88C141.738 130.013 141.518 129.353 141.078 128.9C140.638 128.433 140.038 128.2 139.278 128.2C138.504 128.2 137.891 128.433 137.438 128.9C136.998 129.353 136.778 130.013 136.778 130.88V137H133.978V125.92H136.778V127.26C137.138 126.793 137.598 126.427 138.158 126.16C138.731 125.893 139.358 125.76 140.038 125.76C140.904 125.76 141.678 125.947 142.358 126.32C143.038 126.68 143.564 127.2 143.938 127.88C144.298 127.24 144.818 126.727 145.498 126.34C146.191 125.953 146.938 125.76 147.738 125.76ZM168.695 125.76C170.055 125.76 171.148 126.18 171.975 127.02C172.815 127.847 173.235 129.007 173.235 130.5V137H170.435V130.88C170.435 130.013 170.215 129.353 169.775 128.9C169.335 128.433 168.735 128.2 167.975 128.2C167.215 128.2 166.608 128.433 166.155 128.9C165.715 129.353 165.495 130.013 165.495 130.88V137H162.695V130.88C162.695 130.013 162.475 129.353 162.035 128.9C161.595 128.433 160.995 128.2 160.235 128.2C159.461 128.2 158.848 128.433 158.395 128.9C157.955 129.353 157.735 130.013 157.735 130.88V137H154.935V125.92H157.735V127.26C158.095 126.793 158.555 126.427 159.115 126.16C159.688 125.893 160.315 125.76 160.995 125.76C161.861 125.76 162.635 125.947 163.315 126.32C163.995 126.68 164.521 127.2 164.895 127.88C165.255 127.24 165.775 126.727 166.455 126.34C167.148 125.953 167.895 125.76 168.695 125.76ZM186.352 125.92V137H183.532V135.6C183.172 136.08 182.698 136.46 182.112 136.74C181.538 137.007 180.912 137.14 180.232 137.14C179.365 137.14 178.598 136.96 177.932 136.6C177.265 136.227 176.738 135.687 176.352 134.98C175.978 134.26 175.792 133.407 175.792 132.42V125.92H178.592V132.02C178.592 132.9 178.812 133.58 179.252 134.06C179.692 134.527 180.292 134.76 181.052 134.76C181.825 134.76 182.432 134.527 182.872 134.06C183.312 133.58 183.532 132.9 183.532 132.02V125.92H186.352ZM195.254 125.76C196.574 125.76 197.641 126.18 198.454 127.02C199.268 127.847 199.674 129.007 199.674 130.5V137H196.874V130.88C196.874 130 196.654 129.327 196.214 128.86C195.774 128.38 195.174 128.14 194.414 128.14C193.641 128.14 193.028 128.38 192.574 128.86C192.134 129.327 191.914 130 191.914 130.88V137H189.114V125.92H191.914V127.3C192.288 126.82 192.761 126.447 193.334 126.18C193.921 125.9 194.561 125.76 195.254 125.76ZM203.757 124.6C203.264 124.6 202.85 124.447 202.517 124.14C202.197 123.82 202.037 123.427 202.037 122.96C202.037 122.493 202.197 122.107 202.517 121.8C202.85 121.48 203.264 121.32 203.757 121.32C204.25 121.32 204.657 121.48 204.977 121.8C205.31 122.107 205.477 122.493 205.477 122.96C205.477 123.427 205.31 123.82 204.977 124.14C204.657 124.447 204.25 124.6 203.757 124.6ZM205.137 125.92V137H202.337V125.92H205.137ZM207.183 131.46C207.183 130.313 207.417 129.313 207.883 128.46C208.35 127.593 208.997 126.927 209.823 126.46C210.65 125.98 211.597 125.74 212.663 125.74C214.037 125.74 215.17 126.087 216.063 126.78C216.97 127.46 217.577 128.42 217.883 129.66H214.863C214.703 129.18 214.43 128.807 214.043 128.54C213.67 128.26 213.203 128.12 212.643 128.12C211.843 128.12 211.21 128.413 210.743 129C210.277 129.573 210.043 130.393 210.043 131.46C210.043 132.513 210.277 133.333 210.743 133.92C211.21 134.493 211.843 134.78 212.643 134.78C213.777 134.78 214.517 134.273 214.863 133.26H217.883C217.577 134.46 216.97 135.413 216.063 136.12C215.157 136.827 214.023 137.18 212.663 137.18C211.597 137.18 210.65 136.947 209.823 136.48C208.997 136 208.35 135.333 207.883 134.48C207.417 133.613 207.183 132.607 207.183 131.46ZM219.215 131.42C219.215 130.3 219.435 129.307 219.875 128.44C220.328 127.573 220.935 126.907 221.695 126.44C222.468 125.973 223.328 125.74 224.275 125.74C225.101 125.74 225.821 125.907 226.435 126.24C227.061 126.573 227.561 126.993 227.935 127.5V125.92H230.755V137H227.935V135.38C227.575 135.9 227.075 136.333 226.435 136.68C225.808 137.013 225.081 137.18 224.255 137.18C223.321 137.18 222.468 136.94 221.695 136.46C220.935 135.98 220.328 135.307 219.875 134.44C219.435 133.56 219.215 132.553 219.215 131.42ZM227.935 131.46C227.935 130.78 227.801 130.2 227.535 129.72C227.268 129.227 226.908 128.853 226.455 128.6C226.001 128.333 225.515 128.2 224.995 128.2C224.475 128.2 223.995 128.327 223.555 128.58C223.115 128.833 222.755 129.207 222.475 129.7C222.208 130.18 222.075 130.753 222.075 131.42C222.075 132.087 222.208 132.673 222.475 133.18C222.755 133.673 223.115 134.053 223.555 134.32C224.008 134.587 224.488 134.72 224.995 134.72C225.515 134.72 226.001 134.593 226.455 134.34C226.908 134.073 227.268 133.7 227.535 133.22C227.801 132.727 227.935 132.14 227.935 131.46ZM236.749 128.22V133.58C236.749 133.953 236.836 134.227 237.009 134.4C237.196 134.56 237.503 134.64 237.929 134.64H239.229V137H237.469C235.109 137 233.929 135.853 233.929 133.56V128.22H232.609V125.92H233.929V123.18H236.749V125.92H239.229V128.22H236.749ZM242.663 124.6C242.17 124.6 241.757 124.447 241.423 124.14C241.103 123.82 240.943 123.427 240.943 122.96C240.943 122.493 241.103 122.107 241.423 121.8C241.757 121.48 242.17 121.32 242.663 121.32C243.157 121.32 243.563 121.48 243.883 121.8C244.217 122.107 244.383 122.493 244.383 122.96C244.383 123.427 244.217 123.82 243.883 124.14C243.563 124.447 243.157 124.6 242.663 124.6ZM244.043 125.92V137H241.243V125.92H244.043ZM251.73 137.18C250.663 137.18 249.703 136.947 248.85 136.48C247.996 136 247.323 135.327 246.83 134.46C246.35 133.593 246.11 132.593 246.11 131.46C246.11 130.327 246.356 129.327 246.85 128.46C247.356 127.593 248.043 126.927 248.91 126.46C249.776 125.98 250.743 125.74 251.81 125.74C252.876 125.74 253.843 125.98 254.71 126.46C255.576 126.927 256.256 127.593 256.75 128.46C257.256 129.327 257.51 130.327 257.51 131.46C257.51 132.593 257.25 133.593 256.73 134.46C256.223 135.327 255.53 136 254.65 136.48C253.783 136.947 252.81 137.18 251.73 137.18ZM251.73 134.74C252.236 134.74 252.71 134.62 253.15 134.38C253.603 134.127 253.963 133.753 254.23 133.26C254.496 132.767 254.63 132.167 254.63 131.46C254.63 130.407 254.35 129.6 253.79 129.04C253.243 128.467 252.57 128.18 251.77 128.18C250.97 128.18 250.296 128.467 249.75 129.04C249.216 129.6 248.95 130.407 248.95 131.46C248.95 132.513 249.21 133.327 249.73 133.9C250.263 134.46 250.93 134.74 251.73 134.74ZM265.704 125.76C267.024 125.76 268.09 126.18 268.904 127.02C269.717 127.847 270.124 129.007 270.124 130.5V137H267.324V130.88C267.324 130 267.104 129.327 266.664 128.86C266.224 128.38 265.624 128.14 264.864 128.14C264.09 128.14 263.477 128.38 263.024 128.86C262.584 129.327 262.364 130 262.364 130.88V137H259.564V125.92H262.364V127.3C262.737 126.82 263.21 126.447 263.784 126.18C264.37 125.9 265.01 125.76 265.704 125.76Z"
          fill="#222222"/>
    <circle cx="339" cy="64" r="40" stroke="#222222" stroke-width="2"/>
    <path d="M299.5 64H378.5" stroke="#222222" stroke-dasharray="2 2"/>
    <path d="M339 115V24.5" stroke="#222222" stroke-dasharray="2 2"/>
    <path d="M346 122H381" stroke="#222222" stroke-dasharray="2 2"/>
    <path d="M297 122H332" stroke="#222222" stroke-dasharray="2 2"/>
    <circle cx="339" cy="122" r="7" stroke="#222222"/>
    <path d="M333 129.708C334.592 131.133 336.695 132 339 132C340.85 132 342.57 131.441 344 130.484" stroke="#222222"/>
    <path d="M331.5 132.047C333.465 133.879 336.102 135 339 135C341.432 135 343.679 134.211 345.5 132.875"
          stroke="#222222"/>
    <ellipse cx="339" cy="64" rx="21" ry="40" stroke="#222222" stroke-dasharray="2 2"/>
    <path d="M309.335 38.5005C317.514 44.4745 327.595 48.0005 338.5 48.0005C349.778 48.0005 360.176 44.2284 368.5 37.877"
          stroke="#222222" stroke-dasharray="2 2"/>
    <path d="M309 91.7469C317.239 85.6233 327.446 82 338.5 82C349.779 82 360.176 85.7721 368.5 92.1235" stroke="#222222"
          stroke-dasharray="2 2"/>
</svg>

<svg xmlns="http://www.w3.org/2000/svg" width="400" height="160" fill="none" viewBox="0 0 400 160"><mask id="a" fill="#fff"><path fill-rule="evenodd" d="M400 0H34L0 34v126h400z" clip-rule="evenodd"/></mask><path fill="#222" d="M34 0v-1h-.414l-.293.293zm366 0h1v-1h-1zM0 34l-.707-.707-.293.293V34zm0 126h-1v1h1zm400 0v1h1v-1zM34 1h366v-2H34zM.707 34.707l34-34-1.414-1.414-34 34zM1 160V34h-2v126zm399-1H0v2h400zM399 0v160h2V0z" mask="url(#a)"/><path fill="#222" d="M26.2 137.14q-1.46 0-2.64-.5-1.16-.5-1.84-1.44t-.7-2.22h3q.06.86.6 1.36.56.5 1.52.5.98 0 1.54-.46.56-.48.56-1.24 0-.62-.38-1.02a2.54 2.54 0 0 0-.96-.62q-.56-.24-1.56-.52-1.36-.4-2.22-.78a4.1 4.1 0 0 1-1.46-1.18q-.6-.8-.6-2.12 0-1.24.62-2.16t1.74-1.4q1.12-.5 2.56-.5 2.16 0 3.5 1.06 1.36 1.04 1.5 2.92H27.9a1.56 1.56 0 0 0-.62-1.18q-.56-.48-1.5-.48-.82 0-1.32.42-.48.42-.48 1.22 0 .56.36.94.38.36.92.6.56.22 1.56.52 1.36.4 2.22.8a4 4 0 0 1 1.48 1.2q.62.8.62 2.1 0 1.12-.58 2.08t-1.7 1.54q-1.12.56-2.66.56m6.647-5.68q0-1.72.7-3a4.9 4.9 0 0 1 1.94-2q1.24-.72 2.84-.72 2.06 0 3.4 1.04 1.36 1.02 1.82 2.88h-3.02a2.14 2.14 0 0 0-.82-1.12q-.56-.42-1.4-.42-1.2 0-1.9.88-.7.86-.7 2.46 0 1.58.7 2.46.7.86 1.9.86 1.701 0 2.22-1.52h3.02q-.46 1.8-1.82 2.86t-3.4 1.06q-1.6 0-2.84-.7a5.1 5.1 0 0 1-1.94-2q-.7-1.3-.7-3.02m14.172-6.86q-.74 0-1.24-.46-.48-.48-.48-1.18t.48-1.16q.5-.48 1.24-.48t1.22.48q.5.46.5 1.16t-.5 1.18q-.48.46-1.22.46m1.38 1.32V137h-2.8v-11.08zm13.066 5.3q0 .6-.08 1.08h-8.1q.1 1.2.84 1.88t1.82.68q1.56 0 2.22-1.34h3.02q-.48 1.6-1.84 2.64-1.36 1.02-3.34 1.02-1.6 0-2.88-.7a5.15 5.15 0 0 1-1.98-2.02q-.7-1.3-.7-3 0-1.72.7-3.02a4.9 4.9 0 0 1 1.96-2q1.26-.7 2.9-.7 1.58 0 2.82.68a4.7 4.7 0 0 1 1.94 1.94q.7 1.24.7 2.86m-2.9-.8q-.02-1.08-.78-1.72-.759-.66-1.86-.66-1.04 0-1.76.64-.7.62-.86 1.74zm11.084-4.66q1.98 0 3.2 1.26 1.22 1.24 1.22 3.48v6.5h-2.8v-6.12q0-1.32-.66-2.02-.66-.72-1.8-.72-1.16 0-1.84.72-.66.7-.66 2.02V137h-2.8v-11.08h2.8v1.38a3.8 3.8 0 0 1 1.42-1.12 4.4 4.4 0 0 1 1.92-.42m6.363 5.7q0-1.72.7-3a4.9 4.9 0 0 1 1.94-2q1.24-.72 2.84-.72 2.06 0 3.4 1.04 1.36 1.02 1.82 2.88h-3.02a2.14 2.14 0 0 0-.82-1.12q-.56-.42-1.4-.42-1.2 0-1.9.88-.7.86-.7 2.46 0 1.58.7 2.46.7.86 1.9.86 1.7 0 2.22-1.52h3.02q-.46 1.8-1.82 2.86t-3.4 1.06q-1.6 0-2.84-.7a5.1 5.1 0 0 1-1.94-2q-.7-1.3-.7-3.02m23.05-.24q0 .6-.08 1.08h-8.1q.1 1.2.84 1.88t1.82.68q1.56 0 2.22-1.34h3.02q-.479 1.6-1.84 2.64-1.36 1.02-3.34 1.02-1.599 0-2.88-.7a5.15 5.15 0 0 1-1.98-2.02q-.7-1.3-.7-3 0-1.72.7-3.02a4.9 4.9 0 0 1 1.96-2q1.261-.7 2.9-.7 1.581 0 2.82.68 1.26.68 1.94 1.94.701 1.24.7 2.86m-2.9-.8q-.02-1.08-.78-1.72-.759-.66-1.86-.66-1.04 0-1.76.64-.698.62-.86 1.74zm9.03-.42q0-2.06.92-3.68a6.65 6.65 0 0 1 2.54-2.54q1.62-.92 3.62-.92 2.34 0 4.1 1.2 1.761 1.2 2.46 3.32h-3.22q-.48-1-1.36-1.5-.86-.5-2-.5-1.22 0-2.18.58-.94.56-1.48 1.6-.52 1.04-.52 2.44 0 1.38.52 2.44a4.06 4.06 0 0 0 1.48 1.62q.96.56 2.18.56 1.14 0 2-.5.88-.52 1.36-1.52h3.22q-.699 2.14-2.46 3.34-1.74 1.18-4.1 1.18-2 0-3.62-.9a6.83 6.83 0 0 1-2.54-2.54q-.92-1.62-.92-3.68m20.952 7.18q-1.6 0-2.88-.7a5.24 5.24 0 0 1-2.02-2.02q-.72-1.3-.72-3t.74-3a5.2 5.2 0 0 1 2.06-2q1.3-.72 2.9-.72t2.9.72a5.1 5.1 0 0 1 2.04 2q.76 1.3.76 3t-.78 3a5.3 5.3 0 0 1-2.08 2.02q-1.3.7-2.92.7m0-2.44q.76 0 1.42-.36a2.74 2.74 0 0 0 1.08-1.12q.4-.74.4-1.8 0-1.58-.84-2.42a2.68 2.68 0 0 0-2.02-.86q-1.2 0-2.02.86-.8.84-.8 2.42t.78 2.44q.8.84 2 .84m21.594-8.98q2.04 0 3.28 1.26 1.26 1.24 1.26 3.48v6.5h-2.8v-6.12q0-1.3-.66-1.98-.66-.7-1.8-.7t-1.82.7q-.66.68-.66 1.98V137h-2.8v-6.12q0-1.3-.66-1.98-.66-.7-1.8-.7-1.16 0-1.84.7-.66.68-.66 1.98V137h-2.8v-11.08h2.8v1.34q.54-.7 1.38-1.1.86-.4 1.88-.4 1.3 0 2.32.56 1.02.54 1.58 1.56.54-.96 1.56-1.54a4.5 4.5 0 0 1 2.24-.58m20.957 0q2.04 0 3.28 1.26 1.26 1.24 1.26 3.48v6.5h-2.8v-6.12q0-1.3-.66-1.98-.66-.7-1.8-.7t-1.82.7q-.66.68-.66 1.98V137h-2.8v-6.12q0-1.3-.66-1.98-.66-.7-1.8-.7-1.16 0-1.84.7-.66.68-.66 1.98V137h-2.8v-11.08h2.8v1.34q.54-.7 1.38-1.1.86-.4 1.88-.4 1.3 0 2.32.56 1.02.54 1.58 1.56.54-.96 1.56-1.54a4.5 4.5 0 0 1 2.24-.58m17.657.16V137h-2.82v-1.4q-.54.72-1.42 1.14a4.4 4.4 0 0 1-1.88.4q-1.3 0-2.3-.54a4 4 0 0 1-1.58-1.62q-.56-1.08-.56-2.56v-6.5h2.8v6.1q0 1.32.66 2.04.66.7 1.8.7 1.16 0 1.82-.7.66-.72.66-2.04v-6.1zm8.902-.16q1.98 0 3.2 1.26 1.22 1.24 1.22 3.48v6.5h-2.8v-6.12q0-1.32-.66-2.02-.66-.72-1.8-.72-1.16 0-1.84.72-.66.7-.66 2.02V137h-2.8v-11.08h2.8v1.38q.56-.72 1.42-1.12a4.4 4.4 0 0 1 1.92-.42m8.503-1.16q-.74 0-1.24-.46-.48-.48-.48-1.18t.48-1.16q.5-.48 1.24-.48t1.22.48q.5.46.5 1.16t-.5 1.18q-.48.46-1.22.46m1.38 1.32V137h-2.8v-11.08zm2.046 5.54q0-1.72.7-3a4.93 4.93 0 0 1 1.94-2q1.24-.72 2.84-.72 2.06 0 3.4 1.04 1.36 1.02 1.82 2.88h-3.02a2.14 2.14 0 0 0-.82-1.12q-.56-.42-1.4-.42-1.2 0-1.9.88-.7.86-.7 2.46 0 1.58.7 2.46.7.86 1.9.86 1.701 0 2.22-1.52h3.02q-.46 1.8-1.82 2.86t-3.4 1.06q-1.6 0-2.84-.7a5.1 5.1 0 0 1-1.94-2q-.7-1.3-.7-3.02m12.032-.04q0-1.68.66-2.98.68-1.3 1.82-2a4.9 4.9 0 0 1 2.58-.7q1.239 0 2.16.5.939.5 1.5 1.26v-1.58h2.82V137h-2.82v-1.62q-.54.78-1.5 1.3-.94.5-2.18.5-1.4 0-2.56-.72-1.14-.72-1.82-2.02-.66-1.32-.66-3.02m8.72.04q0-1.02-.4-1.74a2.74 2.74 0 0 0-1.08-1.12 2.83 2.83 0 0 0-1.46-.4q-.78 0-1.44.38t-1.08 1.12q-.4.72-.4 1.72t.4 1.76q.42.74 1.08 1.14.68.4 1.44.4a2.95 2.95 0 0 0 1.46-.38q.68-.4 1.08-1.12.4-.74.4-1.76m8.814-3.24v5.36q0 .56.26.82.28.24.92.24h1.3V137h-1.76q-3.54 0-3.54-3.44v-5.34h-1.32v-2.3h1.32v-2.74h2.82v2.74h2.48v2.3zm5.914-3.62q-.74 0-1.24-.46-.48-.48-.48-1.18t.48-1.16q.5-.48 1.24-.48t1.22.48q.5.46.5 1.16t-.5 1.18q-.48.46-1.22.46m1.38 1.32V137h-2.8v-11.08zm7.687 11.26q-1.6 0-2.88-.7a5.24 5.24 0 0 1-2.02-2.02q-.72-1.3-.72-3t.74-3a5.2 5.2 0 0 1 2.06-2q1.3-.72 2.9-.72t2.9.72a5.1 5.1 0 0 1 2.04 2q.76 1.3.76 3t-.78 3a5.3 5.3 0 0 1-2.08 2.02q-1.3.7-2.92.7m0-2.44q.76 0 1.42-.36a2.74 2.74 0 0 0 1.08-1.12q.4-.74.4-1.8 0-1.58-.84-2.42a2.68 2.68 0 0 0-2.02-.86q-1.2 0-2.02.86-.8.84-.8 2.42t.78 2.44q.8.84 2 .84m13.974-8.98q1.98 0 3.2 1.26 1.22 1.24 1.22 3.48v6.5h-2.8v-6.12q0-1.32-.66-2.02-.66-.72-1.8-.72-1.16 0-1.84.72-.66.7-.66 2.02V137h-2.8v-11.08h2.8v1.38q.56-.72 1.42-1.12a4.4 4.4 0 0 1 1.92-.42"/><circle cx="339" cy="64" r="40" stroke="#222" stroke-width="2"/><path stroke="#222" stroke-dasharray="2 2" d="M299.5 64h79M339 115V24.5M346 122h35M297 122h35"/><circle cx="339" cy="122" r="7" stroke="#222"/><path stroke="#222" d="M333 129.708a8.97 8.97 0 0 0 6 2.292 8.96 8.96 0 0 0 5-1.516M331.5 132.047A10.96 10.96 0 0 0 339 135a10.95 10.95 0 0 0 6.5-2.125"/><ellipse cx="339" cy="64" stroke="#222" stroke-dasharray="2 2" rx="21" ry="40"/><path stroke="#222" stroke-dasharray="2 2" d="M309.335 38.5A49.28 49.28 0 0 0 338.5 48a49.3 49.3 0 0 0 30-10.123M309 91.747A49.28 49.28 0 0 1 338.5 82a49.3 49.3 0 0 1 30 10.124"/></svg>
